data/styles/clear/style-night/symbols/shinto-m.svg

<svg height="24" viewBox="0 0 24 24" width="24"><g fill="none" fill-rule="evenodd"><circle cx="12" cy="12" fill="#fff" opacity=".4" r="12"/><circle cx="12" cy="12" fill="#4d361f" r="11"/><path d="m16.8951627 7.38461538h.1817604v.92307693h-1.8251748l.062937 1.38461538h2.6853147v.92307691h-2.6433566l.3356643 7.3846154h-1.3846154v-7.3846154h-4.61538461v7.3846154h-1.38461538l.33566433-7.3846154h-2.64335664v-.92307691h2.68531469l.06293706-1.38461538h-1.82517483v-.92307693h.21488836c-.88208243-.23076923-1.13796528-.46153846-1.13796528-.46153846v-.92307692s1.85764724.46153846 6.0261982.46153846c4.1685509 0 5.9738018-.46153846 5.9738018-.46153846v.92307692s-.2393188.23076923-1.1048373.46153846zm-7.20285501.92307693v1.38461538h1.84615381v-1.38461538zm4.61538461 0h-1.8461538v1.38461538h1.8461538z" fill="#fff" opacity=".6"/></g></svg>

<svg width="24" height="24" viewBox="0 0 24 24">
  <g fill="none" fill-rule="evenodd">
    <circle cx="12" cy="12" r="12" fill="#FFF" opacity=".4"/>
    <circle cx="12" cy="12" r="11" fill="#4C351E"/>
    <path fill="#FFF" d="M7.13796528,7.38461538 C6.25588285,7.15384615 6,6.92307692 6,6.92307692 L6,6 C6,6 7.85764724,6.46153846 12.0261982,6.46153846 C16.1947491,6.46153846 18,6 18,6 L18,6.92307692 C18,6.92307692 17.7606812,7.15384615 16.8951627,7.38461538 L17.0769231,7.38461538 L17.0769231,8.30769231 L15.2517483,8.30769231 L15.3146853,9.69230769 L18,9.69230769 L18,10.6153846 L15.3566434,10.6153846 L15.6923077,18 L14.3076923,18 L14.3076923,10.6153846 L9.69230769,10.6153846 L9.69230769,18 L8.30769231,18 L8.64335664,10.6153846 L6,10.6153846 L6,9.69230769 L8.68531469,9.69230769 L8.74825175,8.30769231 L6.92307692,8.30769231 L6.92307692,7.38461538 L7.13796528,7.38461538 Z M14.3076923,8.30769231 L12.4615385,8.30769231 L12.4615385,9.69230769 L11.5384615,9.69230769 L11.5384615,8.30769231 L9.69230769,8.30769231 L9.69230769,9.69230769 L14.3076923,9.69230769 L14.3076923,8.30769231 Z" opacity=".6"/>
  </g>
</svg>
